X:6680
T:The Cup of Tea
O:england
M:4/4
L:1/8
S:Tommy Peoples
R:Reel
D:The Quiet Glen
K:D
BAGF GE~E2|E2zB GEE2|FGBF GBEG|~F2DF ADFA|\
BEBA GE~E2|EGBE G2zA|~B2BA GABc|d2AG FDD2|\
BAGF GE~E2|FGBE G2zA|~B2BA GE~E2|D2AG FADG|\
~B2BA GE~E2|E2BE GBEG|~B2BA GABc|d2AG FDD2|:\
d2zg fded|Bdeg fBB2|dgge ~f3e|dBAG FDD2|\
d2zg fd~d2|Adfa g2fg|(3agf (3gfe faed|dBAG FDD2::\
F2dA FABA|FAdA FE~E2|F2dA FABc|d2AG FDD2|\
~F3E ~F3A|FAde feea|~f3e dBAF|GBAG FDD2:|
